X:25
T: Mighty Mike's
C:  B. Black
R: reel
M: 4/4
L: 1/8
K: D
A2 FA dcBA | dcBA FB B2 | A2 FA dcBd | faef dBBd |
A2 FA dcBe | fdec dBBd | AdcB AFEF | AFGE FD D2 :|
eAcA eAcA | FABc dcde | fa a2 bage | faef dBBd |
eAcA eAcA | FABc dcde | fBBc dcBd | AFGE FD D2 :|
